X:70
T:Pagar ben podo (Cantiga 25)
C:Las Cantigas de Santa Maria
C:Alphonso X, El Sabio (1221-1284)
R:Cantigas
R:Allemande ou Branle double
Q:1/4=120     %Tempo
M:4/4     %Meter
L:1/8     %
K:C
B2 Bc (d2 cd) |A2 GA (G2 F2) |A2 Bc (d2 cB) |BA (GA G4) :|B2 Bc (d3 c) |d2 ed (d2 c2) |e2 e2 (f2 d2) |e2 (dc B4) |]






